source/images/logo/html5.svg

<svg fill="none" height="88" viewBox="0 0 63 88" width="63" xmlns="http://www.w3.org/2000/svg"><path d="m5.79346 0h3.95381v3.91941h3.64443v-3.91941h3.9538v11.8614h-3.9538v-3.95381h-3.61004v3.95381h-3.9882zm16.77794 3.95379h-3.4897v-3.95379h10.9504v3.95379h-3.5069v7.90761h-3.9538zm9.1969-3.95379h4.1429l2.5442 4.17727 2.5442-4.17727h4.1429v11.8614h-3.9538v-5.87914l-2.7677 4.26324-2.7676-4.26324v5.87914h-3.8851zm15.3339 0h3.9539v7.94197h5.6041v3.91943h-9.558" fill="#000"/><path d="m5.67287 80.9526-5.67287-63.6733h62.3672l-5.6729 63.6389-25.5623 7.0825" fill="#e44d26"/><path d="m31.2031 82.645v-60.0805h25.4935l-4.8649 54.3217" fill="#f16529"/><path d="m11.5868 30.2881h19.5972v7.8044h-11.0363l.722 7.9936h10.3143v7.7872h-17.4656zm2.4754 27.5047h7.8389l.5501 6.2401 8.7328 2.3379v8.1482l-16.0216-4.4695" fill="#ebebeb"/><path d="m50.6642 30.2881h-19.5628v7.8044h18.8408zm-1.4268 15.798h-18.136v7.8044h9.6267l-.9111 10.1424-8.7156 2.3379v8.1139l15.9872-4.4352" fill="#fff"/></svg>

<svg width="63" height="88" viewBox="0 0 63 88" fill="none" xmlns="http://www.w3.org/2000/svg">
<path d="M5.79346 0H9.74727V3.91941H13.3917V0H17.3455V11.8614H13.3917V7.90759H9.78166V11.8614H5.79346V0ZM22.5714 3.95379H19.0817V0H30.0321V3.95379H26.5252V11.8614H22.5714V3.95379ZM31.7683 0H35.9112L38.4554 4.17727L40.9996 0H45.1425V11.8614H41.1887V5.98226L38.421 10.2455L35.6534 5.98226V11.8614H31.7683V0ZM47.1022 0H51.0561V7.94197H56.6602V11.8614H47.1022" fill="black"/>
<path d="M5.67287 80.9526L0 17.2793H62.3672L56.6943 80.9182L31.132 88.0007" fill="#E44D26"/>
<path d="M31.2031 82.645V22.5645H56.6966L51.8317 76.8862" fill="#F16529"/>
<path d="M11.5868 30.2881H31.184V38.0925H20.1477L20.8697 46.0861H31.184V53.8733H13.7184L11.5868 30.2881ZM14.0622 57.7928H21.9011L22.4512 64.0329L31.184 66.3708V74.519L15.1624 70.0495" fill="#EBEBEB"/>
<path d="M50.6642 30.2881H31.1014V38.0925H49.9422L50.6642 30.2881ZM49.2374 46.0861H31.1014V53.8905H40.7281L39.817 64.0329L31.1014 66.3708V74.4847L47.0886 70.0495" fill="white"/>
</svg>
